src/pos-icons/escalator-box.svg

<svg height="24" viewBox="0 0 24 24" width="24" xmlns="http://www.w3.org/2000/svg"><path d="m5 3c-1.11 0-2 .89-2 2v14c0 1.11.89 2 2 2h14c1.11 0 2-.89 2-2v-14c0-1.11-.89-2-2-2zm9.34 3h2.71c1.11 0 2 .9 2 2 0 1.11-.89 2-2 2h-1.05l-6 8h-2.95c-1.1 0-2-.89-2-2 0-1.1.9-2 2-2h1.29z"/></svg>

<?xml version="1.0" encoding="UTF-8"?><!DOCTYPE svg PUBLIC "-//W3C//DTD SVG 1.1//EN" "http://www.w3.org/Graphics/SVG/1.1/DTD/svg11.dtd"><svg xmlns="http://www.w3.org/2000/svg" xmlns:xlink="http://www.w3.org/1999/xlink" version="1.1" id="mdi-escalator-box" width="24" height="24" viewBox="0 0 24 24"><path d="M5 3C3.89 3 3 3.89 3 5V19C3 20.11 3.89 21 5 21H19C20.11 21 21 20.11 21 19V5C21 3.89 20.11 3 19 3H5M14.34 6H17.05C18.16 6 19.05 6.9 19.05 8C19.05 9.11 18.16 10 17.05 10H16L10 18H7.05C5.95 18 5.05 17.11 5.05 16C5.05 14.9 5.95 14 7.05 14H8.34L14.34 6Z" /></svg>
